nestor/loading.svg

<?xml version="1.0" encoding="UTF-8" standalone="no"?>
<!-- Created with Inkscape (http://www.inkscape.org/) -->

<svg
   xmlns:dc="http://purl.org/dc/elements/1.1/"
   xmlns:cc="http://creativecommons.org/ns#"
   xmlns:rdf="http://www.w3.org/1999/02/22-rdf-syntax-ns#"
   xmlns:svg="http://www.w3.org/2000/svg"
   xmlns="http://www.w3.org/2000/svg"
   xmlns:sodipodi="http://sodipodi.sourceforge.net/DTD/sodipodi-0.dtd"
   xmlns:inkscape="http://www.inkscape.org/namespaces/inkscape"
   width="35.433071"
   height="35.433071"
   id="svg2"
   version="1.1"
   inkscape:version="0.48.4 r9939"
   sodipodi:docname="loading.svg">
  <defs
     id="defs4">
    <linearGradient
       id="linearGradient5256">
      <stop
         style="stop-color:#acacac;stop-opacity:1;"
         offset="0"
         id="stop5258" />
      <stop
         style="stop-color:#acacac;stop-opacity:0.99342108;"
         offset="1"
         id="stop5260" />
    </linearGradient>
    <linearGradient
       id="linearGradient3798">
      <stop
         style="stop-color:#acacac;stop-opacity:1;"
         offset="0"
         id="stop3800" />
      <stop
         style="stop-color:#acacac;stop-opacity:0.68421054;"
         offset="1"
         id="stop3802" />
    </linearGradient>
  </defs>
  <sodipodi:namedview
     id="base"
     pagecolor="#ffffff"
     bordercolor="#666666"
     borderopacity="1.0"
     inkscape:pageopacity="0.0"
     inkscape:pageshadow="2"
     inkscape:zoom="22.86"
     inkscape:cx="11.176728"
     inkscape:cy="17.716536"
     inkscape:document-units="px"
     inkscape:current-layer="layer4"
     showgrid="true"
     units="cm"
     inkscape:window-width="1920"
     inkscape:window-height="1015"
     inkscape:window-x="0"
     inkscape:window-y="28"
     inkscape:window-maximized="1">
    <inkscape:grid
       type="xygrid"
       id="grid2985"
       empspacing="5"
       visible="true"
       enabled="true"
       snapvisiblegridlinesonly="true"
       units="cm"
       spacingx="0.0125cm"
       spacingy="0.0125cm"
       originx="0cm"
       originy="0cm"
       dotted="false" />
  </sodipodi:namedview>
  <metadata
     id="metadata7">
    <rdf:RDF>
      <cc:Work
         rdf:about="">
        <dc:format>image/svg+xml</dc:format>
        <dc:type
           rdf:resource="http://purl.org/dc/dcmitype/StillImage" />
        <dc:title />
      </cc:Work>
    </rdf:RDF>
  </metadata>
  <g
     inkscape:groupmode="layer"
     id="layer4"
     inkscape:label="Calque">
    <path
       inkscape:connector-curvature="0"
       style="fill:#acacac;fill-opacity:1;stroke:none"
       d="m 7.0625,14.1875 c -1.956914,0 -3.53125,1.57435 -3.53125,3.53125 0,1.957 1.574336,3.53125 3.53125,3.53125 1.956914,0 3.53125,-1.57425 3.53125,-3.53125 0,-1.9569 -1.574336,-3.53125 -3.53125,-3.53125 z m 10.625,0 c -1.956914,0 -3.53125,1.57435 -3.53125,3.53125 0,1.957 1.574336,3.53125 3.53125,3.53125 1.956914,0 3.5625,-1.57425 3.5625,-3.53125 0,-1.9569 -1.605586,-3.53125 -3.5625,-3.53125 z m 10.65625,0 c -1.956915,0 -3.53125,1.574336 -3.53125,3.53125 0,1.956914 1.574335,3.53125 3.53125,3.53125 1.956914,0 3.53125,-1.574336 3.53125,-3.53125 0,-1.956914 -1.574336,-3.53125 -3.53125,-3.53125 z"
       id="path3035-1" />
  </g>
</svg>

<?xml version="1.0" encoding="UTF-8" standalone="no"?>
<!-- Created with Inkscape (http://www.inkscape.org/) -->

<svg
   xmlns:dc="http://purl.org/dc/elements/1.1/"
   xmlns:cc="http://creativecommons.org/ns#"
   xmlns:rdf="http://www.w3.org/1999/02/22-rdf-syntax-ns#"
   xmlns:svg="http://www.w3.org/2000/svg"
   xmlns="http://www.w3.org/2000/svg"
   xmlns:sodipodi="http://sodipodi.sourceforge.net/DTD/sodipodi-0.dtd"
   xmlns:inkscape="http://www.inkscape.org/namespaces/inkscape"
   width="35.433071"
   height="35.433071"
   id="svg2"
   version="1.1"
   inkscape:version="0.48.4 r9939"
   sodipodi:docname="loading.svg">
  <defs
     id="defs4">
    <linearGradient
       id="linearGradient5256">
      <stop
         style="stop-color:#acacac;stop-opacity:1;"
         offset="0"
         id="stop5258" />
      <stop
         style="stop-color:#acacac;stop-opacity:0.99342108;"
         offset="1"
         id="stop5260" />
    </linearGradient>
    <linearGradient
       id="linearGradient3798">
      <stop
         style="stop-color:#acacac;stop-opacity:1;"
         offset="0"
         id="stop3800" />
      <stop
         style="stop-color:#acacac;stop-opacity:0.68421054;"
         offset="1"
         id="stop3802" />
    </linearGradient>
  </defs>
  <sodipodi:namedview
     id="base"
     pagecolor="#ffffff"
     bordercolor="#666666"
     borderopacity="1.0"
     inkscape:pageopacity="0.0"
     inkscape:pageshadow="2"
     inkscape:zoom="22.86"
     inkscape:cx="17.716536"
     inkscape:cy="17.716536"
     inkscape:document-units="px"
     inkscape:current-layer="layer1"
     showgrid="true"
     units="cm"
     inkscape:window-width="1920"
     inkscape:window-height="1016"
     inkscape:window-x="0"
     inkscape:window-y="27"
     inkscape:window-maximized="1">
    <inkscape:grid
       type="xygrid"
       id="grid2985"
       empspacing="5"
       visible="true"
       enabled="true"
       snapvisiblegridlinesonly="true"
       units="cm"
       spacingx="0.0125cm"
       spacingy="0.0125cm"
       originx="0cm"
       originy="0cm"
       dotted="false" />
  </sodipodi:namedview>
  <metadata
     id="metadata7">
    <rdf:RDF>
      <cc:Work
         rdf:about="">
        <dc:format>image/svg+xml</dc:format>
        <dc:type
           rdf:resource="http://purl.org/dc/dcmitype/StillImage" />
        <dc:title />
      </cc:Work>
    </rdf:RDF>
  </metadata>
  <g
     inkscape:label="Calque 1"
     inkscape:groupmode="layer"
     id="layer1"
     transform="translate(0,-1016.9291)">
    <path
       style="fill:#acacac;fill-opacity:1;stroke:none"
       d="M 7.0625 14.1875 C 5.105586 14.1875 3.53125 15.76185 3.53125 17.71875 C 3.53125 19.67575 5.105586 21.25 7.0625 21.25 C 9.019414 21.25 10.59375 19.67575 10.59375 17.71875 C 10.59375 15.76185 9.019414 14.1875 7.0625 14.1875 z M 17.6875 14.1875 C 15.730586 14.1875 14.15625 15.76185 14.15625 17.71875 C 14.15625 19.67575 15.730586 21.25 17.6875 21.25 C 19.644414 21.25 21.25 19.67575 21.25 17.71875 C 21.25 15.76185 19.644414 14.1875 17.6875 14.1875 z M 28.34375 14.1875 C 26.386835 14.1875 24.8125 15.761836 24.8125 17.71875 C 24.8125 19.675664 26.386835 21.25 28.34375 21.25 C 30.300664 21.25 31.875 19.675664 31.875 17.71875 C 31.875 15.761836 30.300664 14.1875 28.34375 14.1875 z "
       transform="translate(0,1016.9291)"
       id="path3035" />
  </g>
</svg>
